X:1
T:Hoxton, 86.84 D
T:Hoxton, 86.84 D
T:Sabbath Hymn and Tune Book, 1859
T:Public Domain Courtesy of the Cyber Hymnal™
C:Sabbath Hymn and Tune Book, 1859
Z:Public Domain
Z:Courtesy of the Cyber Hymnal™
%%score ( 1 2 ) ( 3 4 )
L:1/8
Q:1/4=95
M:3/4
K:E
V:1 treble 
V:2 treble 
V:3 bass 
V:4 bass 
V:1
 [EB]2 | [EG][DF] E2 E2 | [EA][EG] [DF]2 [DF]2 | [CE][CE] [DF]2 [DB]2 | [EG]4 [EB]2 | %5
 [EG][DF] E2 E2 | [EA][EG] [DF]4 | [EG]2 [EG]2 [E^A]2 | [DB]4 [EB]2 | [Ec][Ec] [EB]2 [EG]2 | %10
 [DF][EG] [EA]2 [DF]2 | [CE][B,F] [B,G]2 [CE]2 | [DF]4 [FB]2 | [EG][DF] E2 [EB]2 | [EA][EG] [DF]4 | %15
 [CE]2 [CE]2 [DF]2 | [EG]4 |] %17
V:2
 x2 | x2 E2 E2 | x6 | x6 | x6 | x2 E2 E2 | x6 | x6 | x6 | x6 | x6 | x6 | x6 | x2 E2 x2 | x6 | x6 | %16
 x4 |] %17
V:3
 [E,G,]2 | [E,B,][B,,B,] [C,G,]2 [C,G,]2 | [A,,C][E,B,] [B,,B,]2 [B,,B,]2 | %3
 [C,G,][C,G,] [B,,B,]2 [B,,B,]2 | [E,B,]4 [E,G,]2 | [E,B,][B,,B,] [C,G,]2 [C,G,]2 | %6
 [A,,C][E,B,] [B,,B,]4 | [E,B,]2 [C,C]2 [F,C]2 | [B,,B,]4 [B,,B,]2 | %9
 [A,,A,][C,A,] [E,G,]2 [E,B,]2 | [B,,B,][E,B,] [A,,C]2 [B,,B,]2 | [C,G,][D,F,] E,2 [C,G,]2 | %12
 [B,,B,]4 [D,B,]2 | [E,B,][B,,G,] [C,G,]2 [G,,B,]2 | [A,,C][E,B,] [B,,B,]4 | %15
 [C,G,]2 [C,G,]2 [B,,B,]2 | [E,B,]4 |] %17
V:4
 x2 | x6 | x6 | x6 | x6 | x6 | x6 | x6 | x6 | x6 | x6 | x2 E,2 x2 | x6 | x6 | x6 | x6 | x4 |] %17

